!!!COM: Ockeghem, Johannes
!!!CDT: ~1425-1497/02/06
!!!OTL: La despourveue
!!!AGN: Song; Chanson
!!!SCT: Ock3008
!!!SCA: Ock3008
!!!voices: 3
**kern	**text	**kern	**text	**kern	**text
*staff3	*staff3	*staff2	*staff2	*staff1	*staff1
*Ivox	*	*Ivox	*	*Ivox	*
*I"Contra	*	*I"Tenor	*	*I"Discantus	*
*I'C	*	*I'T	*	*I'D	*
*clefGv2	*	*clefGv2	*	*clefG2	*
*k[b-]	*	*k[b-]	*	*k[b-]	*
*M3/1	*	*M3/1	*	*M3/1	*
*met(O)	*	*met(O)	*	*met(O)	*
!!LO:TX:g=z
*>A	*>A	*>A	*>A	*>A	*>A
=1-	=1-	=1-	=1-	=1-	=1-
!	!	!	!	!LO:TX:Z=12:t=Rondeau	!
1r	.	1r	.	1r	.
1r	.	1r	.	1r	.
2.F/	La	1f	La	1f	La
4D/	.	.	.	.	.
=2	=2	=2	=2	=2	=2
2C/	.	2e\	des-	2g/	des-
2F/	.	1f	.	1a	.
2r	.	.	.	.	.
2BB-/	des-	2d\	.	2b-\	.
1C	-pour-	1e-i	-pour-	1g	-pour-
=3	=3	=3	=3	=3	=3
2D/	-veue	0d	-veue	1.f	-veue
1BB-	.	.	.	.	.
2.B-\	et	.	.	4e-i/	.
.	.	.	.	4d/	.
.	.	1d	et	2B-/	.
4G/	.	.	.	.	.
2F/	.	.	.	2f/	et
=4	=4	=4	=4	=4	=4
2E-/	la	2e-i\	la	2g/	la
1B-	.	2d\	.	1f	.
.	.	1B-	ban-	.	.
2G/	ban-	.	.	1b-	ban-
2F/	.	2.c\	.	.	.
2c\	.	.	.	2a/	.
.	.	4A/	.	.	.
=5	=5	=5	=5	=5	=5
2.d\	.	1G	.	1b-	.
4e\	.	.	.	.	.
0f	-ny-	0F	-ny-	1.cc	-ny-
.	.	.	.	2a/	.
=6	=6	=6	=6	=6	=6
0F	-e	0f	-e	1a	-e
.	.	.	.	1r	.
1G	De	1e-i	De	1g	De
=7	=7	=7	=7	=7	=7
2D/	cil	2d\	cil	2.f/	cil
2BB-/	.	2f\	.	.	.
.	.	.	.	8e-i/L	.
.	.	.	.	8d/J	.
1C	.	2e-i\	.	2c/	.
.	.	1c	qui	2e-i/	.
2r	.	.	.	1d	qui
2G/	qui	2Bni\	.	.	.
=8	=8	=8	=8	=8	=8
2A/	m'a	0c	m'a	1c	m'a
2F/	.	.	.	.	.
4G/	.	.	.	1r	.
2A/	.	.	.	.	.
4B-\	.	.	.	.	.
1c	.	1F	don-	1a	don-
=9	=9	=9	=9	=9	=9
2r	.	1c	-n&eacute;	1a	-n&eacute;
1F	don-	.	.	.	.
.	.	0d	ma	2f/	ma
2.G/	-n&eacute;	.	.	1b-	vi-
4F/	.	.	.	.	.
2D/	.	.	.	2a/	.
=10	=10	=10	=10	=10	=10
2r	.	1.c	vi-	1.a	.
1F	ma	.	.	.	.
2A/	.	2A/	.	4g/	.
.	.	.	.	4f/	.
1G	.	2.B-\	.	2.g/	.
.	.	4A/	.	8f/L	.
.	.	.	.	8g/J	.
=11	=11	=11	=11	=11	=11
1F	vi-	1c	.	1.a	.
2.A/	.	2.F/	.	.	.
.	.	.	.	2f/	.
4B-\	.	4D/	.	.	.
2c\	.	2C/	.	2.g/	.
2C/	.	2c\	.	.	.
.	.	.	.	4e/	.
=12	=12	=12	=12	=12	=12
2D/	.	2B-\	.	2d/	.
1F	.	2A/	.	1c	.
.	.	1F	.	.	.
2D/	.	.	.	1f	.
1C	.	1G	.	.	.
.	.	.	.	2e/	.
=13	=13	=13	=13	=13	=13
2r	.	0.F	-e,	0f	-e,
1c	.	.	.	.	.
2.d\	.	.	.	.	.
.	.	.	.	1r	.
8c\L	.	.	.	.	.
8B-\J	.	.	.	.	.
4.A/	.	.	.	.	.
8G/	.	.	.	.	.
=14	=14	=14	=14	=14	=14
0.B-	-e,	[0.G	Seu-	0d	Seu-
.	.	.	.	2e-/	-le-
.	.	.	.	2d/	.
=15	=15	=15	=15	=15	=15
2r	.	0.G]	.	1B-	-ment
1E-	Seu-	.	.	.	.
.	.	.	.	1.e-i	par
1B-	.	.	.	.	.
2A/	-le-	.	.	2d/	ung
=16	=16	=16	=16	=16	=16
1.A	-ment	2.F/	-le-	2d/	faulx
.	.	.	.	1f	.
.	.	4D/	.	.	.
.	.	2F/	-ment	.	.
2B-\	par	2G/	par	4e-i/	.
.	.	.	.	4d/	.
1G	ung	1E-i	ung	2.c/	.
.	.	.	.	4B-/	.
=17	=17	=17	=17	=17	=17
1.F	faulx	1D	faulx	2.d/	rap-
.	.	.	.	4e/	.
.	.	0BB-	rap-	1.f	.
1B-	rap-	.	.	.	.
4A/	.	.	.	2d/	.
4G/	.	.	.	.	.
=18	=18	=18	=18	=18	=18
0.A;	-port.	0.F;	-port.	0.c;	-port.
=19	=19	=19	=19	=19	=19
*>B	*>B	*>B	*>B	*>B	*>B
0F	Ha,	0c	Ha,	0a	Ha,
1D	.	1F	For-	1a	For-
=20	=20	=20	=20	=20	=20
1r	.	1G	-tu-	1b-	-tu-
0D	For-	0F	.	2a/	.
.	.	.	.	1a	.
.	.	.	.	4g/	.
.	.	.	.	4f/	.
=21	=21	=21	=21	=21	=21
0C	-tu-	0c	-ne,	1e	-ne,
.	.	.	.	1r	.
[1BB-	-ne,	1r	.	1d	n'as
=22	=22	=22	=22	=22	=22
0.BB-]	.	0d	n'as	1f	.
.	.	.	.	0b-	tu
.	.	1d	tu	.	.
=23	=23	=23	=23	=23	=23
1F	n'as	1.c	pas	2.a/	pas
.	.	.	.	4b-\	.
2C/	tu	.	.	1.cc	.
1F	pas	2A/	.	.	.
.	.	2A/	.	.	.
2G/	.	2G/	.	4b-\	.
.	.	.	.	4a/	.
=24	=24	=24	=24	=24	=24
2.E/	.	2.c\	.	2.g/	.
4D/	.	4d\	.	4f/	.
1G	.	1B-	.	1g	.
2r	.	1A	tort	[1a	tort
[2F/	tort	.	.	.	.
=25	=25	=25	=25	=25	=25
2F/]	.	0c	.	2a/]	.
4E/	.	.	.	4g/	.
4D/	.	.	.	4f/	.
1C	.	.	.	1e	.
[1c	D'a-	[1F	.	1r	.
=26	=26	=26	=26	=26	=26
2c\]	.	0.F]	.	1a	D'a-
1d	-voir	.	.	.	.
.	.	.	.	1a	-voir
2c\	.	.	.	.	.
1A	sans	.	.	1a	sans
=27	=27	=27	=27	=27	=27
0D	cau-	0F	cau-	0a	cau-
1A	-se ain-	1F	-se ain-	1a	-se ain-
=28	=28	=28	=28	=28	=28
2B-\	si-	1E-i	-si	1g	-si
2c\	.	.	.	.	.
2d\	.	0D	.	1.f	.
1B-	.	.	.	.	.
4A/	.	.	.	2e/	.
4B-\	.	.	.	.	.
=29	=29	=29	=29	=29	=29
2c\	pu-	2C/	pu-	1e	pu-
2C/	.	2c\	.	.	.
2G/	-gni-	2B-\	-gni-	2d/	-gni-
2A/	.	2c\	.	1c	.
1F	.	1A	.	.	.
.	.	.	.	[2f/	.
=30	=30	=30	=30	=30	=30
1D	.	1.d	.	4f/]	.
.	.	.	.	4g/	.
.	.	.	.	4a/	.
.	.	.	.	8g/L	.
.	.	.	.	8a/J	.
2G/	.	.	.	2b-\	.
1A	.	2c\	.	4a/	.
.	.	.	.	2cc\	.
.	.	1F	.	.	.
.	.	.	.	4b-\	.
[2c\	.	.	.	4a/	.
.	.	.	.	4f/	.
=31	=31	=31	=31	=31	=31
4c\]	.	2E/	.	2g/	.
4B-\	.	.	.	.	.
1d	.	2D/	.	2.a/	.
.	.	1F	.	.	.
.	.	.	.	4f/	.
1c	.	.	.	1f	.
.	.	1G	.	.	.
2B-\	.	.	.	2e/	.
=32	=32	=32	=32	=32	=32
0.cl	-e!	0.Fl	-e!	0.fl	-e!
!!LO:LB:g=z
=||	=||	=||	=||	=||	=||
!!!RDF**kern: l=long note in original notation
!!!RDF**kern: i=editorial accidental
!!!ENC: Chris Gage 06-25-2012
!!!END: 2015/10/29/
!!!EED: Jesse Rodin
!!!EEV: 2015/10/31/
!!!ONB: Translated from MusicXML and edited on 2015/10/31/ by Craig Sapp
!!muse2ps: C^@{COM}^i2I150v100,100,120Q16z18c56l2600
!!!COM: Ockeghem, Johannes
!!!CDT: ~1425-1497/02/06
!!!OTL: La despourveue
!!!AGN: Song; Chanson
!!!SCT: Ock3008
!!!SCA: Ock3008
!!!voices: 3
*thru	*thru	*thru	*thru	*thru	*thru
*staff3	*staff3	*staff2	*staff2	*staff1	*staff1
*Ivox	*	*Ivox	*	*Ivox	*
*I"Contra	*	*I"Tenor	*	*I"Discantus	*
*I'C	*	*I'T	*	*I'D	*
*clefGv2	*	*clefGv2	*	*clefG2	*
*k[b-]	*	*k[b-]	*	*k[b-]	*
*M3/1	*	*M3/1	*	*M3/1	*
*met(O)	*	*met(O)	*	*met(O)	*
!!LO:TX:g=z
*>A	*>A	*>A	*>A	*>A	*>A
=33-	=33-	=33-	=33-	=33-	=33-
!	!	!	!	!LO:TX:Z=12:t=Rondeau	!
1r	.	1r	.	1r	.
1r	.	1r	.	1r	.
2.F/	Le	1f	Le	1f	Le
4D/	.	.	.	.	.
=34	=34	=34	=34	=34	=34
2C/	.	2e\	po-	2g/	po-
2F/	.	1f	.	1a	.
2r	.	.	.	.	.
2BB-/	po-	2d\	.	2b-\	.
1C	-vre	1e-i	-vre	1g	-vre
=35	=35	=35	=35	=35	=35
2D/	cueur	0d	cueur	1.f	cueur
1BB-	.	.	.	.	.
2.B-\	ne	.	.	4e-i/	.
.	.	.	.	4d/	.
.	.	1d	ne	2B-/	.
4G/	.	.	.	.	.
2F/	.	.	.	2f/	ne
=36	=36	=36	=36	=36	=36
2E-/	pen-	2e-i\	pen-	2g/	pen-
1B-	.	2d\	.	1f	.
.	.	1B-	-soit	.	.
2G/	-soit	.	.	1b-	-soit
2F/	.	2.c\	.	.	.
2c\	.	.	.	2a/	.
.	.	4A/	.	.	.
=37	=37	=37	=37	=37	=37
2.d\	.	1G	.	1b-	.
4e\	.	.	.	.	.
0f	my-	0F	my-	1.cc	my-
.	.	.	.	2a/	.
=38	=38	=38	=38	=38	=38
0F	-e	0f	-e	1a	-e
.	.	.	.	1r	.
1G	D'es-	1e-i	D'es-	1g	D'es-
=39	=39	=39	=39	=39	=39
2D/	-tre	2d\	-tre	2.f/	-tre
2BB-/	.	2f\	.	.	.
.	.	.	.	8e-i/L	.
.	.	.	.	8d/J	.
1C	.	2e-i\	.	2c/	.
.	.	1c	de	2e-i/	.
2r	.	.	.	1d	de
2G/	de	2Bni\	.	.	.
=40	=40	=40	=40	=40	=40
2A/	luy	0c	luy	1c	luy
2F/	.	.	.	.	.
4G/	.	.	.	1r	.
2A/	.	.	.	.	.
4B-\	.	.	.	.	.
1c	.	1F	si	1a	si
=41	=41	=41	=41	=41	=41
2r	.	1c	fort	1a	fort
1F	si	.	.	.	.
.	.	0d	ha-	2f/	ha-
2.G/	fort	.	.	1b-	-y-
4F/	.	.	.	.	.
2D/	.	.	.	2a/	.
=42	=42	=42	=42	=42	=42
2r	.	1.c	-y-	1.a	.
1F	ha-	.	.	.	.
2A/	.	2A/	.	4g/	.
.	.	.	.	4f/	.
1G	.	2.B-\	.	2.g/	.
.	.	4A/	.	8f/L	.
.	.	.	.	8g/J	.
=43	=43	=43	=43	=43	=43
1F	-y-	1c	.	1.a	.
2.A/	.	2.F/	.	.	.
.	.	.	.	2f/	.
4B-\	.	4D/	.	.	.
2c\	.	2C/	.	2.g/	.
2C/	.	2c\	.	.	.
.	.	.	.	4e/	.
=44	=44	=44	=44	=44	=44
2D/	.	2B-\	.	2d/	.
1F	.	2A/	.	1c	.
.	.	1F	.	.	.
2D/	.	.	.	1f	.
1C	.	1G	.	.	.
.	.	.	.	2e/	.
=45	=45	=45	=45	=45	=45
2r	.	0.F	-e;	0f	-e;
1c	.	.	.	.	.
2.d\	.	.	.	.	.
.	.	.	.	1r	.
8c\L	.	.	.	.	.
8B-\J	.	.	.	.	.
4.A/	.	.	.	.	.
8G/	.	.	.	.	.
=46	=46	=46	=46	=46	=46
0.B-	-e;	[0.G	Puis	0d	Puis
.	.	.	.	2e-/	qu'il
.	.	.	.	2d/	.
=47	=47	=47	=47	=47	=47
2r	.	0.G]	.	1B-	luy
1E-	Puis	.	.	.	.
.	.	.	.	1.e-i	plaist,
1B-	.	.	.	.	.
2A/	qu'il	.	.	2d/	.
=48	=48	=48	=48	=48	=48
1.A	luy	2.F/	qu'il	2d/	elle
.	.	.	.	1f	.
.	.	4D/	.	.	.
.	.	2F/	luy	.	.
2B-\	plaist,	2G/	plaist,	4e-i/	.
.	.	.	.	4d/	.
1G	elle	1E-i	elle	2.c/	est
.	.	.	.	4B-/	.
=49	=49	=49	=49	=49	=49
1.F	est	1D	est	2.d/	d'a-
.	.	.	.	4e/	.
.	.	0BB-	d'a-	1.f	.
1B-	d'a-	.	.	.	.
4A/	.	.	.	2d/	.
4G/	.	.	.	.	.
=50	=50	=50	=50	=50	=50
0.A;	-cord,	0.F;	-cord,	0.c;	-cord,
!!LO:LB:g=z
=	=	=	=	=	=
!!!RDF**kern: l=long note in original notation
!!!RDF**kern: i=editorial accidental
!!!ENC: Chris Gage 06-25-2012
!!!END: 2015/10/29/
!!!EED: Jesse Rodin
!!!EEV: 2015/10/31/
!!!ONB: Translated from MusicXML and edited on 2015/10/31/ by Craig Sapp
!!muse2ps: C^@{COM}^i2I150v100,100,120Q16z18c56l2600
!!!COM: Ockeghem, Johannes
!!!CDT: ~1425-1497/02/06
!!!OTL: La despourveue
!!!AGN: Song; Chanson
!!!SCT: Ock3008
!!!SCA: Ock3008
!!!voices: 3
*thru	*thru	*thru	*thru	*thru	*thru
*staff3	*staff3	*staff2	*staff2	*staff1	*staff1
*Ivox	*	*Ivox	*	*Ivox	*
*I"Contra	*	*I"Tenor	*	*I"Discantus	*
*I'C	*	*I'T	*	*I'D	*
*clefGv2	*	*clefGv2	*	*clefG2	*
*k[b-]	*	*k[b-]	*	*k[b-]	*
*M3/1	*	*M3/1	*	*M3/1	*
*met(O)	*	*met(O)	*	*met(O)	*
!!LO:TX:g=z
*>A	*>A	*>A	*>A	*>A	*>A
=51-	=51-	=51-	=51-	=51-	=51-
!	!	!	!	!LO:TX:Z=12:t=Rondeau	!
1r	.	1r	.	1r	.
1r	.	1r	.	1r	.
2.F/	La	1f	La	1f	La
4D/	.	.	.	.	.
=52	=52	=52	=52	=52	=52
2C/	.	2e\	des-	2g/	des-
2F/	.	1f	.	1a	.
2r	.	.	.	.	.
2BB-/	des-	2d\	.	2b-\	.
1C	-pour-	1e-i	-pour-	1g	-pour-
=53	=53	=53	=53	=53	=53
2D/	-veue	0d	-veue	1.f	-veue
1BB-	.	.	.	.	.
2.B-\	et	.	.	4e-i/	.
.	.	.	.	4d/	.
.	.	1d	et	2B-/	.
4G/	.	.	.	.	.
2F/	.	.	.	2f/	et
=54	=54	=54	=54	=54	=54
2E-/	la	2e-i\	la	2g/	la
1B-	.	2d\	.	1f	.
.	.	1B-	ban-	.	.
2G/	ban-	.	.	1b-	ban-
2F/	.	2.c\	.	.	.
2c\	.	.	.	2a/	.
.	.	4A/	.	.	.
=55	=55	=55	=55	=55	=55
2.d\	.	1G	.	1b-	.
4e\	.	.	.	.	.
0f	-ny-	0F	-ny-	1.cc	-ny-
.	.	.	.	2a/	.
=56	=56	=56	=56	=56	=56
0F	-e	0f	-e	1a	-e
.	.	.	.	1r	.
1G	De	1e-i	De	1g	De
=57	=57	=57	=57	=57	=57
2D/	cil	2d\	cil	2.f/	cil
2BB-/	.	2f\	.	.	.
.	.	.	.	8e-i/L	.
.	.	.	.	8d/J	.
1C	.	2e-i\	.	2c/	.
.	.	1c	qui	2e-i/	.
2r	.	.	.	1d	qui
2G/	qui	2Bni\	.	.	.
=58	=58	=58	=58	=58	=58
2A/	m'a	0c	m'a	1c	m'a
2F/	.	.	.	.	.
4G/	.	.	.	1r	.
2A/	.	.	.	.	.
4B-\	.	.	.	.	.
1c	.	1F	don-	1a	don-
=59	=59	=59	=59	=59	=59
2r	.	1c	-n&eacute;	1a	-n&eacute;
1F	don-	.	.	.	.
.	.	0d	ma	2f/	ma
2.G/	-n&eacute;	.	.	1b-	vi-
4F/	.	.	.	.	.
2D/	.	.	.	2a/	.
=60	=60	=60	=60	=60	=60
2r	.	1.c	vi-	1.a	.
1F	ma	.	.	.	.
2A/	.	2A/	.	4g/	.
.	.	.	.	4f/	.
1G	.	2.B-\	.	2.g/	.
.	.	4A/	.	8f/L	.
.	.	.	.	8g/J	.
=61	=61	=61	=61	=61	=61
1F	vi-	1c	.	1.a	.
2.A/	.	2.F/	.	.	.
.	.	.	.	2f/	.
4B-\	.	4D/	.	.	.
2c\	.	2C/	.	2.g/	.
2C/	.	2c\	.	.	.
.	.	.	.	4e/	.
=62	=62	=62	=62	=62	=62
2D/	.	2B-\	.	2d/	.
1F	.	2A/	.	1c	.
.	.	1F	.	.	.
2D/	.	.	.	1f	.
1C	.	1G	.	.	.
.	.	.	.	2e/	.
=63	=63	=63	=63	=63	=63
2r	.	0.F	-e,	0f	-e,
1c	.	.	.	.	.
2.d\	.	.	.	.	.
.	.	.	.	1r	.
8c\L	.	.	.	.	.
8B-\J	.	.	.	.	.
4.A/	.	.	.	.	.
8G/	.	.	.	.	.
=64	=64	=64	=64	=64	=64
0.B-	-e,	[0.G	Seu-	0d	Seu-
.	.	.	.	2e-/	-le-
.	.	.	.	2d/	.
=65	=65	=65	=65	=65	=65
2r	.	0.G]	.	1B-	-ment
1E-	Seu-	.	.	.	.
.	.	.	.	1.e-i	par
1B-	.	.	.	.	.
2A/	-le-	.	.	2d/	ung
=66	=66	=66	=66	=66	=66
1.A	-ment	2.F/	-le-	2d/	faulx
.	.	.	.	1f	.
.	.	4D/	.	.	.
.	.	2F/	-ment	.	.
2B-\	par	2G/	par	4e-i/	.
.	.	.	.	4d/	.
1G	ung	1E-i	ung	2.c/	.
.	.	.	.	4B-/	.
=67	=67	=67	=67	=67	=67
1.F	faulx	1D	faulx	2.d/	rap-
.	.	.	.	4e/	.
.	.	0BB-	rap-	1.f	.
1B-	rap-	.	.	.	.
4A/	.	.	.	2d/	.
4G/	.	.	.	.	.
=68	=68	=68	=68	=68	=68
0.A;	-port.	0.F;	-port.	0.c;	-port.
!!LO:LB:g=z
=	=	=	=	=	=
!!!RDF**kern: l=long note in original notation
!!!RDF**kern: i=editorial accidental
!!!ENC: Chris Gage 06-25-2012
!!!END: 2015/10/29/
!!!EED: Jesse Rodin
!!!EEV: 2015/10/31/
!!!ONB: Translated from MusicXML and edited on 2015/10/31/ by Craig Sapp
!!muse2ps: C^@{COM}^i2I150v100,100,120Q16z18c56l2600
!!!COM: Ockeghem, Johannes
!!!CDT: ~1425-1497/02/06
!!!OTL: La despourveue
!!!AGN: Song; Chanson
!!!SCT: Ock3008
!!!SCA: Ock3008
!!!voices: 3
*staff3	*staff3	*staff2	*staff2	*staff1	*staff1
*Ivox	*	*Ivox	*	*Ivox	*
*I"Contra	*	*I"Tenor	*	*I"Discantus	*
*I'C	*	*I'T	*	*I'D	*
*clefGv2	*	*clefGv2	*	*clefG2	*
*k[b-]	*	*k[b-]	*	*k[b-]	*
*M3/1	*	*M3/1	*	*M3/1	*
*met(O)	*	*met(O)	*	*met(O)	*
!!LO:TX:g=z
*>A	*>A	*>A	*>A	*>A	*>A
=69-	=69-	=69-	=69-	=69-	=69-
!	!	!	!	!LO:TX:Z=12:t=Rondeau	!
1r	.	1r	.	1r	.
1r	.	1r	.	1r	.
2.F/	El	1f	El	1f	El
4D/	.	.	.	.	.
=70	=70	=70	=70	=70	=70
2C/	ne	2e\	ne	2g/	ne
2F/	.	1f	.	1a	.
2r	.	.	.	.	.
2BB-/	veult	2d\	.	2b-\	.
1C	.	1e-i	veult	1g	veult
=71	=71	=71	=71	=71	=71
2D/	plus	0d	plus	1.f	plus
1BB-	.	.	.	.	.
2.B-\	de	.	.	4e-i/	.
.	.	.	.	4d/	.
.	.	1d	de	2B-/	.
4G/	.	.	.	.	.
2F/	.	.	.	2f/	de
=72	=72	=72	=72	=72	=72
2E-/	com-	2e-i\	com-	2g/	com-
1B-	.	2d\	.	1f	.
.	.	1B-	-paig-	.	.
2G/	-paig-	.	.	1b-	-paig-
2F/	.	2.c\	.	.	.
2c\	.	.	.	2a/	.
.	.	4A/	.	.	.
=73	=73	=73	=73	=73	=73
2.d\	.	1G	.	1b-	.
4e\	.	.	.	.	.
0f	-ni-	0F	-ni-	1.cc	-ni-
.	.	.	.	2a/	.
=74	=74	=74	=74	=74	=74
0F	-e,	0f	-e,	1a	-e,
.	.	.	.	1r	.
1G	For-	1e-i	For-	1g	For-
=75	=75	=75	=75	=75	=75
2D/	-tu-	2d\	-tu-	2.f/	-tu-
2BB-/	.	2f\	.	.	.
.	.	.	.	8e-i/L	.
.	.	.	.	8d/J	.
1C	.	2e-i\	.	2c/	.
.	.	1c	.	2e-i/	.
2r	.	.	.	1d	.
2G/	.	2Bni\	.	.	.
=76	=76	=76	=76	=76	=76
2A/	.	0c	-ne	1c	-ne
2F/	.	.	.	.	.
4G/	.	.	.	1r	.
2A/	.	.	.	.	.
4B-\	.	.	.	.	.
1c	-ne	1F	l'a	1a	l'a
=77	=77	=77	=77	=77	=77
2r	.	1c	trop	1a	trop
1F	l'a	.	.	.	.
.	.	0d	es-	2f/	es-
2.G/	trop	.	.	1b-	.
4F/	.	.	.	.	.
2D/	.	.	.	2a/	-ba-
=78	=78	=78	=78	=78	=78
2r	.	1.c	-ba-	1.a	-y-
1F	es-	.	.	.	.
2A/	.	2A/	.	4g/	.
.	.	.	.	4f/	.
1G	-ba-	2.B-\	-y-	2.g/	.
.	.	4A/	.	8f/L	.
.	.	.	.	8g/J	.
=79	=79	=79	=79	=79	=79
1F	-y-	1c	.	1.a	.
2.A/	.	2.F/	.	.	.
.	.	.	.	2f/	.
4B-\	.	4D/	.	.	.
2c\	.	2C/	.	2.g/	.
2C/	.	2c\	.	.	.
.	.	.	.	4e/	.
=80	=80	=80	=80	=80	=80
2D/	.	2B-\	.	2d/	.
1F	.	2A/	.	1c	.
.	.	1F	.	.	.
2D/	.	.	.	1f	.
1C	.	1G	.	.	.
.	.	.	.	2e/	.
=81	=81	=81	=81	=81	=81
2r	.	0.F	-e	0f	-e
1c	.	.	.	.	.
2.d\	.	.	.	.	.
.	.	.	.	1r	.
8c\L	.	.	.	.	.
8B-\J	.	.	.	.	.
4.A/	.	.	.	.	.
8G/	.	.	.	.	.
=82	=82	=82	=82	=82	=82
0.B-	-e	[0.G	D'a-	0d	D'a-
.	.	.	.	2e-/	-voir
.	.	.	.	2d/	.
=83	=83	=83	=83	=83	=83
2r	.	0.G]	.	1B-	es-
1E-	D'a-	.	.	.	.
.	.	.	.	1.e-i	-t&eacute;
1B-	-voir	.	.	.	.
2A/	es-	.	.	2d/	.
=84	=84	=84	=84	=84	=84
1.A	-t&eacute;	2.F/	-voir	2d/	tout
.	.	.	.	1f	.
.	.	4D/	.	.	.
.	.	2F/	es-	.	.
2B-\	tout	2G/	-t&eacute;	4e-i/	.
.	.	.	.	4d/	.
1G	son	1E-i	tout	2.c/	son
.	.	.	.	4B-/	.
=85	=85	=85	=85	=85	=85
1.F	con-	1D	son	2.d/	con-
.	.	.	.	4e/	.
.	.	0BB-	con-	1.f	.
1B-	.	.	.	.	.
4A/	.	.	.	2d/	.
4G/	.	.	.	.	.
=86	=86	=86	=86	=86	=86
0.A;	-fort.	0.F;	-fort.	0.c;	-fort.
=87	=87	=87	=87	=87	=87
*>B	*>B	*>B	*>B	*>B	*>B
0F	Plus	0c	Plus	0a	Plus
1D	ne	1F	ne	1a	ne
=88	=88	=88	=88	=88	=88
1r	.	1G	de-	1b-	de-
0D	de-	0F	-si-	2a/	.
.	.	.	.	1a	-si-
.	.	.	.	4g/	.
.	.	.	.	4f/	.
=89	=89	=89	=89	=89	=89
0C	-si-	0c	-re	1e	-re
.	.	.	.	1r	.
[1BB-	-re	1r	.	1d	que
=90	=90	=90	=90	=90	=90
0.BB-]	.	0d	que	1f	.
.	.	.	.	0b-	.
.	.	1d	.	.	.
=91	=91	=91	=91	=91	=91
1F	que	1.c	la	2.a/	la
.	.	.	.	4b-\	.
2C/	.	.	.	1.cc	.
1F	la	2A/	.	.	.
.	.	2A/	.	.	.
2G/	.	2G/	.	4b-\	.
.	.	.	.	4a/	.
=92	=92	=92	=92	=92	=92
2.E/	.	2.c\	.	2.g/	.
4D/	.	4d\	.	4f/	.
1G	.	1B-	.	1g	.
2r	.	1A	mort,	[1a	mort,
[2F/	mort,	.	.	.	.
=93	=93	=93	=93	=93	=93
2F/]	.	0c	.	2a/]	.
4E/	.	.	.	4g/	.
4D/	.	.	.	4f/	.
1C	.	.	.	1e	.
[1c	Puis	[1F	.	1r	.
=94	=94	=94	=94	=94	=94
2c\]	.	0.F]	.	1a	Puis
1d	qu'ain-	.	.	.	.
.	.	.	.	1a	qu'ain-
2c\	.	.	.	.	.
1A	-si	.	.	1a	-si
=95	=95	=95	=95	=95	=95
0D	suis	0F	suis	0a	suis
1A	par-	1F	par-	1a	par-
=96	=96	=96	=96	=96	=96
2B-\	.	1E-i	.	1g	.
2c\	.	.	.	.	.
2d\	faul-	0D	faul-	1.f	faul-
1B-	.	.	.	.	.
4A/	.	.	.	2e/	.
4B-\	.	.	.	.	.
=97	=97	=97	=97	=97	=97
2c\	-ce en-	2C/	-ce en-	1e	-ce en-
2C/	.	2c\	.	.	.
2G/	-vi-	2B-\	-vi-	2d/	-vi-
2A/	.	2c\	.	1c	.
1F	.	1A	.	.	.
.	.	.	.	[2f/	.
=98	=98	=98	=98	=98	=98
1D	.	1.d	.	4f/]	.
.	.	.	.	4g/	.
.	.	.	.	4a/	.
.	.	.	.	8g/L	.
.	.	.	.	8a/J	.
2G/	.	.	.	2b-\	.
1A	.	2c\	.	4a/	.
.	.	.	.	2cc\	.
.	.	1F	.	.	.
.	.	.	.	4b-\	.
[2c\	.	.	.	4a/	.
.	.	.	.	4f/	.
=99	=99	=99	=99	=99	=99
4c\]	.	2E/	.	2g/	.
4B-\	.	.	.	.	.
1d	.	2D/	.	2.a/	.
.	.	1F	.	.	.
.	.	.	.	4f/	.
1c	.	.	.	1f	.
.	.	1G	.	.	.
2B-\	.	.	.	2e/	.
=100	=100	=100	=100	=100	=100
0.cl	-e.	0.Fl	-e.	0.fl	-e.
!!LO:LB:g=z
=||	=||	=||	=||	=||	=||
!!!RDF**kern: l=long note in original notation
!!!RDF**kern: i=editorial accidental
!!!ENC: Chris Gage 06-25-2012
!!!END: 2015/10/29/
!!!EED: Jesse Rodin
!!!EEV: 2015/10/31/
!!!ONB: Translated from MusicXML and edited on 2015/10/31/ by Craig Sapp
!!muse2ps: C^@{COM}^i2I150v100,100,120Q16z18c56l2600
!!!COM: Ockeghem, Johannes
!!!CDT: ~1425-1497/02/06
!!!OTL: La despourveue
!!!AGN: Song; Chanson
!!!SCT: Ock3008
!!!SCA: Ock3008
!!!voices: 3
*staff3	*staff3	*staff2	*staff2	*staff1	*staff1
*Ivox	*	*Ivox	*	*Ivox	*
*I"Contra	*	*I"Tenor	*	*I"Discantus	*
*I'C	*	*I'T	*	*I'D	*
*clefGv2	*	*clefGv2	*	*clefG2	*
*k[b-]	*	*k[b-]	*	*k[b-]	*
*M3/1	*	*M3/1	*	*M3/1	*
*met(O)	*	*met(O)	*	*met(O)	*
!!LO:TX:g=z
*>A	*>A	*>A	*>A	*>A	*>A
=101-	=101-	=101-	=101-	=101-	=101-
!	!	!	!	!LO:TX:Z=12:t=Rondeau	!
1r	.	1r	.	1r	.
1r	.	1r	.	1r	.
2.F/	La	1f	La	1f	La
4D/	.	.	.	.	.
=102	=102	=102	=102	=102	=102
2C/	.	2e\	des-	2g/	des-
2F/	.	1f	.	1a	.
2r	.	.	.	.	.
2BB-/	des-	2d\	.	2b-\	.
1C	-pour-	1e-i	-pour-	1g	-pour-
=103	=103	=103	=103	=103	=103
2D/	-veue	0d	-veue	1.f	-veue
1BB-	.	.	.	.	.
2.B-\	et	.	.	4e-i/	.
.	.	.	.	4d/	.
.	.	1d	et	2B-/	.
4G/	.	.	.	.	.
2F/	.	.	.	2f/	et
=104	=104	=104	=104	=104	=104
2E-/	la	2e-i\	la	2g/	la
1B-	.	2d\	.	1f	.
.	.	1B-	ban-	.	.
2G/	ban-	.	.	1b-	ban-
2F/	.	2.c\	.	.	.
2c\	.	.	.	2a/	.
.	.	4A/	.	.	.
=105	=105	=105	=105	=105	=105
2.d\	.	1G	.	1b-	.
4e\	.	.	.	.	.
0f	-ny-	0F	-ny-	1.cc	-ny-
.	.	.	.	2a/	.
=106	=106	=106	=106	=106	=106
0F	-e	0f	-e	1a	-e
.	.	.	.	1r	.
1G	De	1e-i	De	1g	De
=107	=107	=107	=107	=107	=107
2D/	cil	2d\	cil	2.f/	cil
2BB-/	.	2f\	.	.	.
.	.	.	.	8e-i/L	.
.	.	.	.	8d/J	.
1C	.	2e-i\	.	2c/	.
.	.	1c	qui	2e-i/	.
2r	.	.	.	1d	qui
2G/	qui	2Bni\	.	.	.
=108	=108	=108	=108	=108	=108
2A/	m'a	0c	m'a	1c	m'a
2F/	.	.	.	.	.
4G/	.	.	.	1r	.
2A/	.	.	.	.	.
4B-\	.	.	.	.	.
1c	.	1F	don-	1a	don-
=109	=109	=109	=109	=109	=109
2r	.	1c	-n&eacute;	1a	-n&eacute;
1F	don-	.	.	.	.
.	.	0d	ma	2f/	ma
2.G/	-n&eacute;	.	.	1b-	vi-
4F/	.	.	.	.	.
2D/	.	.	.	2a/	.
=110	=110	=110	=110	=110	=110
2r	.	1.c	vi-	1.a	.
1F	ma	.	.	.	.
2A/	.	2A/	.	4g/	.
.	.	.	.	4f/	.
1G	.	2.B-\	.	2.g/	.
.	.	4A/	.	8f/L	.
.	.	.	.	8g/J	.
=111	=111	=111	=111	=111	=111
1F	vi-	1c	.	1.a	.
2.A/	.	2.F/	.	.	.
.	.	.	.	2f/	.
4B-\	.	4D/	.	.	.
2c\	.	2C/	.	2.g/	.
2C/	.	2c\	.	.	.
.	.	.	.	4e/	.
=112	=112	=112	=112	=112	=112
2D/	.	2B-\	.	2d/	.
1F	.	2A/	.	1c	.
.	.	1F	.	.	.
2D/	.	.	.	1f	.
1C	.	1G	.	.	.
.	.	.	.	2e/	.
=113	=113	=113	=113	=113	=113
2r	.	0.F	-e,	0f	-e,
1c	.	.	.	.	.
2.d\	.	.	.	.	.
.	.	.	.	1r	.
8c\L	.	.	.	.	.
8B-\J	.	.	.	.	.
4.A/	.	.	.	.	.
8G/	.	.	.	.	.
=114	=114	=114	=114	=114	=114
0.B-	-e,	[0.G	Seu-	0d	Seu-
.	.	.	.	2e-/	-le-
.	.	.	.	2d/	.
=115	=115	=115	=115	=115	=115
2r	.	0.G]	.	1B-	-ment
1E-	Seu-	.	.	.	.
.	.	.	.	1.e-i	par
1B-	.	.	.	.	.
2A/	-le-	.	.	2d/	ung
=116	=116	=116	=116	=116	=116
1.A	-ment	2.F/	-le-	2d/	faulx
.	.	.	.	1f	.
.	.	4D/	.	.	.
.	.	2F/	-ment	.	.
2B-\	par	2G/	par	4e-i/	.
.	.	.	.	4d/	.
1G	ung	1E-i	ung	2.c/	.
.	.	.	.	4B-/	.
=117	=117	=117	=117	=117	=117
1.F	faulx	1D	faulx	2.d/	rap-
.	.	.	.	4e/	.
.	.	0BB-	rap-	1.f	.
1B-	rap-	.	.	.	.
4A/	.	.	.	2d/	.
4G/	.	.	.	.	.
=118	=118	=118	=118	=118	=118
0.A;	-port.	0.F;	-port.	0.c;	-port.
=119	=119	=119	=119	=119	=119
*>B	*>B	*>B	*>B	*>B	*>B
0F	Ha,	0c	Ha,	0a	Ha,
1D	.	1F	For-	1a	For-
=120	=120	=120	=120	=120	=120
1r	.	1G	-tu-	1b-	-tu-
0D	For-	0F	.	2a/	.
.	.	.	.	1a	.
.	.	.	.	4g/	.
.	.	.	.	4f/	.
=121	=121	=121	=121	=121	=121
0C	-tu-	0c	-ne,	1e	-ne,
.	.	.	.	1r	.
[1BB-	-ne,	1r	.	1d	n'as
=122	=122	=122	=122	=122	=122
0.BB-]	.	0d	n'as	1f	.
.	.	.	.	0b-	tu
.	.	1d	tu	.	.
=123	=123	=123	=123	=123	=123
1F	n'as	1.c	pas	2.a/	pas
.	.	.	.	4b-\	.
2C/	tu	.	.	1.cc	.
1F	pas	2A/	.	.	.
.	.	2A/	.	.	.
2G/	.	2G/	.	4b-\	.
.	.	.	.	4a/	.
=124	=124	=124	=124	=124	=124
2.E/	.	2.c\	.	2.g/	.
4D/	.	4d\	.	4f/	.
1G	.	1B-	.	1g	.
2r	.	1A	tort	[1a	tort
[2F/	tort	.	.	.	.
=125	=125	=125	=125	=125	=125
2F/]	.	0c	.	2a/]	.
4E/	.	.	.	4g/	.
4D/	.	.	.	4f/	.
1C	.	.	.	1e	.
[1c	D'a-	[1F	.	1r	.
=126	=126	=126	=126	=126	=126
2c\]	.	0.F]	.	1a	D'a-
1d	-voir	.	.	.	.
.	.	.	.	1a	-voir
2c\	.	.	.	.	.
1A	sans	.	.	1a	sans
=127	=127	=127	=127	=127	=127
0D	cau-	0F	cau-	0a	cau-
1A	-se ain-	1F	-se ain-	1a	-se ain-
=128	=128	=128	=128	=128	=128
2B-\	si-	1E-i	-si	1g	-si
2c\	.	.	.	.	.
2d\	.	0D	.	1.f	.
1B-	.	.	.	.	.
4A/	.	.	.	2e/	.
4B-\	.	.	.	.	.
=129	=129	=129	=129	=129	=129
2c\	pu-	2C/	pu-	1e	pu-
2C/	.	2c\	.	.	.
2G/	-gni-	2B-\	-gni-	2d/	-gni-
2A/	.	2c\	.	1c	.
1F	.	1A	.	.	.
.	.	.	.	[2f/	.
=130	=130	=130	=130	=130	=130
1D	.	1.d	.	4f/]	.
.	.	.	.	4g/	.
.	.	.	.	4a/	.
.	.	.	.	8g/L	.
.	.	.	.	8a/J	.
2G/	.	.	.	2b-\	.
1A	.	2c\	.	4a/	.
.	.	.	.	2cc\	.
.	.	1F	.	.	.
.	.	.	.	4b-\	.
[2c\	.	.	.	4a/	.
.	.	.	.	4f/	.
=131	=131	=131	=131	=131	=131
4c\]	.	2E/	.	2g/	.
4B-\	.	.	.	.	.
1d	.	2D/	.	2.a/	.
.	.	1F	.	.	.
.	.	.	.	4f/	.
1c	.	.	.	1f	.
.	.	1G	.	.	.
2B-\	.	.	.	2e/	.
=132	=132	=132	=132	=132	=132
0.cl	-e!	0.Fl	-e!	0.fl	-e!
==	==	==	==	==	==
*-	*-	*-	*-	*-	*-
!!!RDF**kern: l=long note in original notation
!!!RDF**kern: i=editorial accidental
!!!ENC: Chris Gage 06-25-2012
!!!END: 2015/10/29/
!!!EED: Jesse Rodin
!!!EEV: 2015/10/31/
!!!ONB: Translated from MusicXML and edited on 2015/10/31/ by Craig Sapp
!!muse2ps: C^@{COM}^i2I150v110,110,130z18c49l2600
